X:0713
T:"The Highway To Dublin" (doublejig) 0713
C:after Mr. Dunlap
B:O'Neill's Music Of Ireland (The 1850) Lyon & Healy, Chicago, 1903 edition
Z:FROM O'NEILL'S TO NOTEWORTHY, FROM NOTEWORTHY TO ABC, MIDI AND .TXT BY VINCE
BRENNAN June 2003 (HTTP://WWW.SOSYOURMOM.COM)
I:abc2nwc
M:6/8
L:1/8
K:A
g|fed cBA|ecA A2g|fed cBc|dBG G2g|
f3/2e/2d c3/2B/2A|def efg|agf efd|cAA A2:|
|:g|faf {a}g2f|ecA A2g|faf {a}g2e|dBG G2g|
faf geg|fdf efg|agf efe|cAA A2:|
